public/new/svg27.svg

<svg fill="none" height="27" viewBox="0 0 9 27" width="9" xmlns="http://www.w3.org/2000/svg" xmlns:xlink="http://www.w3.org/1999/xlink"><clipPath id="a"><path d="m0 0h9v27h-9z"/></clipPath><g clip-path="url(#a)"><path clip-rule="evenodd" d="m4.5.5c1.06087 0 2.07828.421427 2.82843 1.17157.75014.75015 1.17157 1.76756 1.17157 2.82843v18c0 1.0609-.42143 2.0783-1.17157 2.8284-.75015.7502-1.76756 1.1716-2.82843 1.1716s-2.07828-.4214-2.82843-1.1716c-.750143-.7501-1.17157-1.7675-1.17157-2.8284v-18c0-1.06087.421427-2.07828 1.17157-2.82843.75015-.750143 1.76756-1.17157 2.82843-1.17157z" fill="#151722" fill-rule="evenodd" stroke="#151722"/><path d="m5.5 10-2 3.5 2 3.5" stroke="#9db2bd"/></g></svg>

<svg width="9" height="27" viewBox="0 0 9 27" fill="none" xmlns="http://www.w3.org/2000/svg">
<g clip-path="url(#clip0_181_14404)">
<path fill-rule="evenodd" clip-rule="evenodd" d="M4.5 0.5C5.56087 0.5 6.57828 0.921427 7.32843 1.67157C8.07857 2.42172 8.5 3.43913 8.5 4.5V22.5C8.5 23.5609 8.07857 24.5783 7.32843 25.3284C6.57828 26.0786 5.56087 26.5 4.5 26.5C3.43913 26.5 2.42172 26.0786 1.67157 25.3284C0.921427 24.5783 0.5 23.5609 0.5 22.5V4.5C0.5 3.43913 0.921427 2.42172 1.67157 1.67157C2.42172 0.921427 3.43913 0.5 4.5 0.5Z" fill="#151722" stroke="#151722"/>
<path d="M5.5 10L3.5 13.5L5.5 17" stroke="#9DB2BD"/>
</g>
<defs>
<clipPath id="clip0_181_14404">
<rect width="9" height="27" fill="white"/>
</clipPath>
</defs>
</svg>
